src/lib/packages/icons/src/assets/line/box-minus.svg

<svg width="24" height="24" viewBox="0 0 24 24" fill="none" xmlns="http://www.w3.org/2000/svg">
<path d="M11.75 20.119V11.386C12.014 11.333 12.274 11.254 12.524 11.145L19.179 8.18799C19.214 8.34599 19.25 8.50402 19.25 8.67002V10.999C19.25 11.413 19.586 11.749 20 11.749C20.414 11.749 20.75 11.413 20.75 10.999V8.67002C20.75 8.03302 20.58 7.426 20.288 6.888C20.286 6.884 20.287 6.88001 20.285 6.87601C20.281 6.86601 20.272 6.86002 20.267 6.85102C19.879 6.15602 19.281 5.582 18.524 5.246L12.527 2.57801C11.555 2.14301 10.443 2.142 9.47498 2.577L3.47498 5.246C2.71898 5.582 2.12006 6.15602 1.73206 6.85102C1.72706 6.86102 1.71799 6.86601 1.71399 6.87601C1.71199 6.88001 1.71306 6.884 1.71106 6.888C1.41906 7.426 1.24902 8.03302 1.24902 8.67002V15.327C1.24902 16.806 2.12298 18.15 3.47498 18.751L9.47205 21.418C9.96105 21.638 10.482 21.749 11.002 21.749C11.425 21.749 11.848 21.676 12.254 21.529C12.644 21.388 12.845 20.958 12.704 20.569C12.565 20.182 12.136 19.982 11.75 20.119ZM10.088 3.94699C10.668 3.68599 11.333 3.687 11.915 3.948L17.915 6.61701C18.083 6.69201 18.2299 6.79601 18.3719 6.90601L15.644 8.11801L8.38904 4.70301L10.088 3.94699ZM6.578 5.508L13.832 8.92301L11.92 9.77301C11.334 10.028 10.663 10.027 10.085 9.775L3.62805 6.90601C3.76905 6.79601 3.91696 6.69201 4.08496 6.61701L6.578 5.508ZM4.08496 17.381C3.27396 17.021 2.75 16.214 2.75 15.327V8.67002C2.75 8.50402 2.78604 8.34599 2.82104 8.18799L9.48096 11.147C9.72996 11.255 9.98798 11.334 10.251 11.386V20.106C10.196 20.086 10.1401 20.074 10.0861 20.05L4.08496 17.381ZM20 16.999C20 17.413 19.664 17.749 19.25 17.749H16.75C16.336 17.749 16 17.413 16 16.999C16 16.585 16.336 16.249 16.75 16.249H19.25C19.664 16.249 20 16.584 20 16.999ZM18 12.249C15.381 12.249 13.25 14.38 13.25 16.999C13.25 19.618 15.381 21.749 18 21.749C20.619 21.749 22.75 19.618 22.75 16.999C22.75 14.38 20.619 12.249 18 12.249ZM18 20.249C16.208 20.249 14.75 18.791 14.75 16.999C14.75 15.207 16.208 13.749 18 13.749C19.792 13.749 21.25 15.207 21.25 16.999C21.25 18.791 19.792 20.249 18 20.249Z" fill="currentColor"/>
</svg>

<svg xmlns="http://www.w3.org/2000/svg" width="24" height="24" fill="none"><path fill="currentColor" d="M11.75 20.119v-8.733c.264-.053.524-.132.774-.241l6.655-2.957c.035.158.071.316.071.482v2.329a.75.75 0 0 0 1.5 0V8.67c0-.637-.17-1.244-.462-1.782l-.003-.012c-.004-.01-.013-.016-.018-.025a3.737 3.737 0 0 0-1.743-1.605l-5.997-2.668a3.732 3.732 0 0 0-3.052-.001l-6 2.669a3.741 3.741 0 0 0-1.743 1.605c-.005.01-.014.015-.018.025-.002.004 0 .008-.003.012A3.731 3.731 0 0 0 1.25 8.67v6.657c0 1.479.874 2.823 2.226 3.424l5.997 2.667a3.674 3.674 0 0 0 2.782.111.75.75 0 0 0-.504-1.41ZM10.088 3.947a2.23 2.23 0 0 1 1.827.001l6 2.669c.168.075.315.179.457.289l-2.728 1.212-7.255-3.415 1.699-.756Zm-3.51 1.561 7.254 3.415-1.912.85a2.309 2.309 0 0 1-1.835.002L3.628 6.906c.141-.11.289-.214.457-.289l2.493-1.109ZM4.085 17.381a2.25 2.25 0 0 1-1.335-2.054V8.67c0-.166.036-.324.071-.482l6.66 2.959c.249.108.507.187.77.239v8.72c-.055-.02-.11-.032-.165-.056l-6.001-2.669ZM20 16.999a.75.75 0 0 1-.75.75h-2.5a.75.75 0 0 1 0-1.5h2.5a.75.75 0 0 1 .75.75Zm-2-4.75a4.756 4.756 0 0 0-4.75 4.75 4.756 4.756 0 0 0 4.75 4.75 4.756 4.756 0 0 0 4.75-4.75 4.756 4.756 0 0 0-4.75-4.75Zm0 8a3.254 3.254 0 0 1-3.25-3.25 3.254 3.254 0 0 1 3.25-3.25 3.254 3.254 0 0 1 3.25 3.25 3.254 3.254 0 0 1-3.25 3.25Z"/></svg>
